src/images/single-assets/L2DAO.svg

<svg width="365" height="365" viewBox="0 0 365 365" xmlns="http://www.w3.org/2000/svg" xmlns:xlink="http://www.w3.org/1999/xlink">
    <path id="Path" fill="#44cdf7" stroke="none" d="M 182 351 L 182 351 L 182 350.98999 Z"/>
    <g id="Group">
        <linearGradient id="linearGradient1" x1="-28.4563" y1="94.2889" x2="228.0955" y2="246.5647" gradientUnits="userSpaceOnUse">
            <stop offset="0.004587" stop-color="#142e77" stop-opacity="1"/>
            <stop offset="0.5183" stop-color="#1f7cb6" stop-opacity="1"/>
            <stop offset="1" stop-color="#3cedfc" stop-opacity="1"/>
        </linearGradient>
        <path id="path1" fill="url(#linearGradient1)" stroke="none" d="M 162.830017 211.75 C 155.780029 215.75 149.369995 220.640015 143.690002 226.429993 C 135.830017 234.429993 129.630005 243.890015 125.200012 254.460022 C 122.820007 260.109985 121.090027 265.97998 119.960022 272.040039 C 112.109985 271.930054 104.119995 270.359985 95.97998 267.290039 C 93.859985 266.5 91.73999 265.599976 89.599976 264.599976 C 78.950012 259.630005 69.289978 252.869995 60.619995 244.330017 C 51.969971 235.809998 44.909973 225.75 39.419983 214.179932 C 33.960022 202.590088 31.22998 190.199951 31.22998 177.01001 L 31.22998 64.280029 L 60.530029 82.390015 L 90.330017 63.98999 L 90.330017 177.01001 C 90.330017 181.689941 91.52002 186.150024 93.919983 190.419922 C 96.299988 194.659912 99.140015 198.400024 102.440002 201.530029 C 105.710022 204.689941 109.030029 207.150024 112.409973 208.98999 C 115.820007 210.830078 118.599976 211.75 120.789978 211.75 L 162.830017 211.75 Z"/>
        <linearGradient id="linearGradient2" x1="-25.8286" y1="89.8618" x2="230.7231" y2="242.1377" gradientUnits="userSpaceOnUse">
            <stop offset="0.004587" stop-color="#142e77" stop-opacity="1"/>
            <stop offset="0.5183" stop-color="#1f7cb6" stop-opacity="1"/>
            <stop offset="1" stop-color="#3cedfc" stop-opacity="1"/>
        </linearGradient>
        <path id="path2" fill="url(#linearGradient2)" stroke="none" d="M 194.190002 277.599976 C 191.190002 280.630005 189.700012 284.410034 189.700012 288.869995 C 189.700012 293.109985 191.190002 296.790039 194.190002 299.819946 C 197.159973 302.869995 200.76001 304.390015 204.919983 304.390015 L 327.030029 304.390015 L 267.910034 364.72998 L 204.919983 364.72998 C 194.780029 364.72998 185.159973 362.72998 176.130005 358.780029 C 167.049988 354.810059 159.150024 349.400024 152.390015 342.47998 C 145.599976 335.589966 140.280029 327.5 136.409973 318.26001 C 132.52002 309.01001 130.570007 299.22998 130.570007 288.869995 C 130.570007 278.300049 132.52002 268.400024 136.409973 259.159973 C 140.280029 249.909973 145.599976 241.830017 152.390015 234.940002 C 159.150024 228.049988 167.039978 222.609985 176.130005 218.640015 C 185.159973 214.689941 194.780029 212.689941 204.919983 212.689941 L 258.959961 212.689941 C 263.150024 212.689941 266.719971 211.179932 269.719971 208.119995 C 272.689941 205.090088 274.180054 201.419922 274.180054 197.169922 C 274.180054 192.709961 272.689941 188.919922 269.719971 185.900024 C 266.719971 182.849976 263.150024 181.330078 258.959961 181.330078 L 121.450012 181.330078 L 121.450012 120.98999 L 258.969971 120.98999 C 269.130005 120.98999 278.72998 122.98999 287.790039 126.939941 C 296.849976 130.909912 304.73999 136.349976 311.530029 143.23999 C 318.290039 150.159912 323.609985 158.219971 327.51001 167.459961 C 331.380005 176.709961 333.319946 186.599976 333.319946 197.169922 C 333.319946 207.52002 331.369995 217.310059 327.51001 226.559998 C 323.619995 235.809998 318.290039 243.890015 311.530029 250.780029 C 304.73999 257.700012 296.849976 263.109985 287.790039 267.079956 C 278.72998 271.030029 269.140015 273.030029 258.969971 273.030029 L 204.929993 273.030029 C 200.76001 273.030029 197.169983 274.550049 194.190002 277.599976 Z"/>
        <linearGradient id="linearGradient3" x1="150.0006" y1="250.8608" x2="111.3109" y2="229.5505" gradientUnits="userSpaceOnUse">
            <stop offset="1e-05" stop-color="#0a207a" stop-opacity="1"/>
            <stop offset="1" stop-color="#2865c3" stop-opacity="0"/>
        </linearGradient>
        <path id="path3" fill="url(#linearGradient3)" stroke="none" d="M 162.830017 211.75 C 155.780029 215.75 149.369995 220.640015 143.690002 226.429993 C 135.830017 234.429993 129.630005 243.890015 125.200012 254.460022 C 122.820007 260.109985 121.090027 265.97998 119.960022 272.040039 C 112.109985 271.930054 104.119995 270.359985 95.97998 267.290039 C 99.419983 252.640015 107.419983 228.140015 124.539978 211.75 L 162.830017 211.75 Z"/>
        <g id="g1">
            <linearGradient id="linearGradient4" x1="43.3118" y1="9.6806" x2="115.0181" y2="52.2418" gradientUnits="userSpaceOnUse">
                <stop offset="0.004587" stop-color="#142e77" stop-opacity="1"/>
                <stop offset="0.5183" stop-color="#1f7cb6" stop-opacity="1"/>
                <stop offset="1" stop-color="#3cedfc" stop-opacity="1"/>
            </linearGradient>
            <path id="path4" fill="url(#linearGradient4)" stroke="none" d="M 90.47998 53.119995 L 60.309998 38.790039 L 60.309998 1.699951 L 60.309998 0.76001 Z"/>
            <linearGradient id="linearGradient5" x1="77.4549" y1="9.9534" x2="6.3807" y2="52.1395" gradientUnits="userSpaceOnUse">
                <stop offset="0.004587" stop-color="#142e77" stop-opacity="1"/>
                <stop offset="0.5183" stop-color="#1f7cb6" stop-opacity="1"/>
                <stop offset="1" stop-color="#3cedfc" stop-opacity="1"/>
            </linearGradient>
            <path id="path5" fill="url(#linearGradient5)" stroke="none" d="M 60.530029 0.97998 L 60.530029 1.929932 L 60.530029 39.01001 L 30.690002 52.97998 Z"/>
            <linearGradient id="linearGradient6" x1="48.4108" y1="46.1693" x2="93.817" y2="73.1201" gradientUnits="userSpaceOnUse">
                <stop offset="0.004587" stop-color="#142e77" stop-opacity="1"/>
                <stop offset="0.5183" stop-color="#1f7cb6" stop-opacity="1"/>
                <stop offset="1" stop-color="#3cedfc" stop-opacity="1"/>
            </linearGradient>
            <path id="path6" fill="url(#linearGradient6)" stroke="none" d="M 60.530029 38.23999 L 60.530029 71.390015 L 90.47998 53.119995 Z"/>
            <linearGradient id="linearGradient7" x1="72.7576" y1="46.0356" x2="27.3515" y2="72.9863" gradientUnits="userSpaceOnUse">
                <stop offset="0.004587" stop-color="#142e77" stop-opacity="1"/>
                <stop offset="0.5183" stop-color="#1f7cb6" stop-opacity="1"/>
                <stop offset="1" stop-color="#3cedfc" stop-opacity="1"/>
            </linearGradient>
            <path id="path7" fill="url(#linearGradient7)" stroke="none" d="M 60.640015 38.099976 L 60.640015 71.25 L 30.690002 52.97998 Z"/>
        </g>
    </g>
</svg>

<svg xmlns="http://www.w3.org/2000/svg" width="365" height="365"><path fill="#44cdf7" d="M182 351v-.01Z"/><linearGradient id="a" x1="-28.456" x2="228.095" y1="94.289" y2="246.565" gradientUnits="userSpaceOnUse"><stop offset=".005" stop-color="#142e77"/><stop offset=".518" stop-color="#1f7cb6"/><stop offset="1" stop-color="#3cedfc"/></linearGradient><path fill="url(#a)" d="M162.83 211.75c-7.05 4-13.46 8.89-19.14 14.68-7.86 8-14.06 17.46-18.49 28.03-2.38 5.65-4.11 11.52-5.24 17.58-7.85-.11-15.84-1.68-23.98-4.75-2.12-.79-4.24-1.69-6.38-2.69-10.65-4.97-20.31-11.73-28.98-20.27-8.65-8.52-15.71-18.58-21.2-30.15q-8.19-17.385-8.19-37.17V64.28l29.3 18.11 29.8-18.4v113.02c0 4.68 1.19 9.14 3.59 13.41 2.38 4.24 5.22 7.98 8.52 11.11 3.27 3.16 6.59 5.62 9.97 7.46 3.41 1.84 6.19 2.76 8.38 2.76z"/><linearGradient id="b" x1="-25.829" x2="230.723" y1="89.862" y2="242.138" gradientUnits="userSpaceOnUse"><stop offset=".005" stop-color="#142e77"/><stop offset=".518" stop-color="#1f7cb6"/><stop offset="1" stop-color="#3cedfc"/></linearGradient><path fill="url(#b)" d="M194.19 277.6c-3 3.03-4.49 6.81-4.49 11.27 0 4.24 1.49 7.92 4.49 10.95 2.97 3.05 6.57 4.57 10.73 4.57h122.11l-59.12 60.34h-62.99c-10.14 0-19.76-2-28.79-5.95-9.08-3.97-16.98-9.38-23.74-16.3-6.79-6.89-12.11-14.98-15.98-24.22-3.89-9.25-5.84-19.03-5.84-29.39 0-10.57 1.95-20.47 5.84-29.71 3.87-9.25 9.19-17.33 15.98-24.22 6.76-6.89 14.65-12.33 23.74-16.3 9.03-3.95 18.65-5.95 28.79-5.95h54.04c4.19 0 7.76-1.51 10.76-4.57 2.97-3.03 4.46-6.7 4.46-10.95 0-4.46-1.49-8.25-4.46-11.27-3-3.05-6.57-4.57-10.76-4.57H121.45v-60.34h137.52c10.16 0 19.76 2 28.82 5.95 9.06 3.97 16.95 9.41 23.74 16.3 6.76 6.92 12.08 14.98 15.98 24.22 3.87 9.25 5.81 19.14 5.81 29.71 0 10.35-1.95 20.14-5.81 29.39-3.89 9.25-9.22 17.33-15.98 24.22-6.79 6.92-14.68 12.33-23.74 16.3-9.06 3.95-18.65 5.95-28.82 5.95h-54.04c-4.17 0-7.76 1.52-10.74 4.57"/><linearGradient id="c" x1="150.001" x2="111.311" y1="250.861" y2="229.55" gradientUnits="userSpaceOnUse"><stop offset="0" stop-color="#0a207a"/><stop offset="1" stop-color="#2865c3" stop-opacity="0"/></linearGradient><path fill="url(#c)" d="M162.83 211.75c-7.05 4-13.46 8.89-19.14 14.68-7.86 8-14.06 17.46-18.49 28.03-2.38 5.65-4.11 11.52-5.24 17.58-7.85-.11-15.84-1.68-23.98-4.75 3.44-14.65 11.44-39.15 28.56-55.54z"/><linearGradient id="d" x1="43.312" x2="115.018" y1="9.681" y2="52.242" gradientUnits="userSpaceOnUse"><stop offset=".005" stop-color="#142e77"/><stop offset=".518" stop-color="#1f7cb6"/><stop offset="1" stop-color="#3cedfc"/></linearGradient><path fill="url(#d)" d="M90.48 53.12 60.31 38.79V.76Z"/><linearGradient id="e" x1="77.455" x2="6.381" y1="9.953" y2="52.139" gradientUnits="userSpaceOnUse"><stop offset=".005" stop-color="#142e77"/><stop offset=".518" stop-color="#1f7cb6"/><stop offset="1" stop-color="#3cedfc"/></linearGradient><path fill="url(#e)" d="M60.53.98v38.03L30.69 52.98Z"/><linearGradient id="f" x1="48.411" x2="93.817" y1="46.169" y2="73.12" gradientUnits="userSpaceOnUse"><stop offset=".005" stop-color="#142e77"/><stop offset=".518" stop-color="#1f7cb6"/><stop offset="1" stop-color="#3cedfc"/></linearGradient><path fill="url(#f)" d="M60.53 38.24v33.15l29.95-18.27Z"/><linearGradient id="g" x1="72.758" x2="27.352" y1="46.036" y2="72.986" gradientUnits="userSpaceOnUse"><stop offset=".005" stop-color="#142e77"/><stop offset=".518" stop-color="#1f7cb6"/><stop offset="1" stop-color="#3cedfc"/></linearGradient><path fill="url(#g)" d="M60.64 38.1v33.15L30.69 52.98Z"/></svg>
